src/icons/svg/system-client.svg

<?xml version="1.0" standalone="no"?><!DOCTYPE svg PUBLIC "-//W3C//DTD SVG 1.1//EN" "http://www.w3.org/Graphics/SVG/1.1/DTD/svg11.dtd"><svg t="1550748769209" class="icon" style="" viewBox="0 0 1024 1024" version="1.1" xmlns="http://www.w3.org/2000/svg" p-id="12322" xmlns:xlink="http://www.w3.org/1999/xlink" width="200" height="200"><defs><style type="text/css">@font-face { font-style: normal; font-family: Arial; src: local("Tsentsiu HG"); }
@font-face { font-family: Arial; src: local("Tsentsiu HG"); }
@font-face { font-style: normal; font-family: 宋体; src: local("Tsentsiu HG"); }
@font-face { font-family: 宋体; src: local("Tsentsiu HG"); }
</style></defs><path d="M512.26057 1023.999997C234.773568 1023.999997 8.9596 794.337611 8.9596 512.040086 8.9596 229.742561 234.773568 0.040088 512.26057 0.040088 789.78766 0.040088 1015.56154 229.742561 1015.56154 512.040086 1015.56154 794.337611 789.78766 1023.999997 512.26057 1023.999997ZM512.26057 53.998121C263.997495 53.998121 62.035704 259.447541 62.035704 511.999999 62.035704 764.592544 263.997495 970.041964 512.26057 970.041964 760.60382 970.041964 962.525523 764.592544 962.525523 511.999999 962.525523 259.447541 760.563732 53.998121 512.26057 53.998121ZM676.660194 794.257436C669.644848 801.393045 661.386783 807.005322 651.966176 811.094267 642.50548 815.223299 632.363294 817.267771 621.49953 817.267771L407.551519 817.267771C396.687755 817.267771 386.545569 815.223299 377.084874 811.094267 367.664266 807.005322 359.406201 801.393045 352.390855 794.257436 345.375509 787.121827 339.843408 778.90385 335.794551 769.603506 331.785782 760.303161 329.781397 750.281238 329.781397 739.457561L329.781397 291.557782C329.781397 280.774193 331.785782 270.591919 335.794551 261.091136 339.843408 251.550266 345.375509 243.252113 352.390855 236.116504 359.406201 229.020983 367.664266 223.368618 377.084874 219.279674 386.545569 215.150641 396.687755 213.106169 407.551519 213.106169L621.49953 213.106169C632.363294 213.106169 642.50548 215.150641 651.966176 219.279674 661.386783 223.368618 669.644848 229.020983 676.660194 236.116504 683.67554 243.252113 689.207641 251.550266 693.256498 261.091136 697.265267 270.591919 699.269652 280.774193 699.269652 291.557782L699.269652 739.457561C699.269652 750.281238 697.265267 760.303161 693.256498 769.603506 689.207641 778.90385 683.67554 787.121827 676.660194 794.257436ZM492.216724 783.233321C498.470404 789.927965 505.806452 793.255244 514.224867 793.255244 523.084247 793.255244 530.50047 789.927965 536.513623 783.233321 542.566865 776.538676 545.573442 768.641401 545.573442 759.581583 545.573442 750.040712 542.566865 742.063261 536.513623 735.569055 530.50047 729.114937 523.084247 725.867834 514.224867 725.867834 505.806452 725.867834 498.470404 729.114937 492.216724 735.569055 486.003132 742.063261 482.876292 750.040712 482.876292 759.581583 482.876292 768.641401 486.003132 776.538676 492.216724 783.233321ZM559.403695 259.447541C557.439399 257.483244 555.234576 256.561227 552.789226 256.561227L476.261823 256.561227C474.257438 256.561227 472.132791 257.483244 469.927968 259.447541 467.723144 261.411838 466.600689 264.097713 466.600689 267.545255 466.600689 271.032884 467.602881 273.718759 469.647354 275.642968 471.611651 277.607265 473.816474 278.56937 476.261823 278.56937L552.789226 278.56937C555.234576 278.56937 557.439399 277.607265 559.403695 275.642968 561.448168 273.718759 562.45036 271.032884 562.45036 267.545255 562.45036 264.097713 561.448168 261.411838 559.403695 259.447541ZM650.442843 322.665831 378.00689 322.665831 378.00689 707.70811 650.442843 707.70811 650.442843 322.665831Z" p-id="12323"></path></svg>

<svg class="icon" viewBox="0 0 1024 1024" xmlns="http://www.w3.org/2000/svg" width="200" height="200"><defs><style>@font-face{font-style:normal;font-family:Arial;src:local(&quot;Tsentsiu HG&quot;)}@font-face{font-family:Arial;src:local(&quot;Tsentsiu HG&quot;)}@font-face{font-style:normal;font-family:宋体;src:local(&quot;Tsentsiu HG&quot;)}@font-face{font-family:宋体;src:local(&quot;Tsentsiu HG&quot;)}</style></defs><path d="M512.26 1024c-277.486 0-503.3-229.662-503.3-511.96 0-282.297 225.814-512 503.3-512 277.528 0 503.302 229.703 503.302 512 0 282.298-225.774 511.96-503.301 511.96zm0-970.002C263.998 53.998 62.037 259.448 62.037 512c0 252.593 201.961 458.042 450.225 458.042 248.343 0 450.265-205.45 450.265-458.042 0-252.552-201.962-458.002-450.265-458.002zm164.4 740.26c-7.015 7.135-15.273 12.747-24.694 16.836-9.46 4.13-19.603 6.174-30.466 6.174H407.552c-10.864 0-21.006-2.045-30.467-6.174-9.42-4.089-17.679-9.701-24.694-16.837-7.015-7.135-12.548-15.353-16.596-24.653-4.01-9.3-6.014-19.323-6.014-30.146v-447.9c0-10.784 2.005-20.966 6.014-30.467 4.048-9.54 9.58-17.839 16.596-24.974 7.015-7.096 15.273-12.748 24.694-16.837 9.46-4.13 19.603-6.174 30.467-6.174H621.5c10.863 0 21.005 2.045 30.466 6.174 9.42 4.089 17.679 9.741 24.694 16.837 7.016 7.135 12.548 15.433 16.596 24.974 4.01 9.5 6.014 19.683 6.014 30.467v447.9c0 10.823-2.005 20.845-6.014 30.146-4.048 9.3-9.58 17.518-16.596 24.653zm-184.443-11.025c6.253 6.695 13.59 10.022 22.008 10.022 8.86 0 16.275-3.327 22.289-10.022 6.053-6.694 9.06-14.592 9.06-23.651 0-9.541-3.007-17.519-9.06-24.013-6.014-6.454-13.43-9.701-22.29-9.701-8.418 0-15.754 3.247-22.007 9.701-6.214 6.494-9.34 14.472-9.34 24.013 0 9.06 3.126 16.957 9.34 23.651zm67.187-523.785c-1.965-1.965-4.17-2.887-6.615-2.887h-76.527c-2.005 0-4.13.922-6.334 2.887-2.205 1.964-3.327 4.65-3.327 8.097 0 3.488 1.002 6.174 3.046 8.098 1.965 1.964 4.17 2.926 6.615 2.926h76.527c2.446 0 4.65-.962 6.615-2.926 2.044-1.924 3.046-4.61 3.046-8.098 0-3.447-1.002-6.133-3.046-8.097zm91.039 63.218H378.007v385.042h272.436V322.666z"/></svg>
